symbols/web/brightness_4/materialsymbolsoutlined/brightness_4_wght500grad200_24px.svg

<svg xmlns="http://www.w3.org/2000/svg" height="24" width="24"><path d="M12 24.275 8.325 20.7H3.3v-5.025L-.275 12 3.3 8.325v-5.05h5.025L12-.3l3.675 3.575h5.05v5.05L24.3 12l-3.575 3.675V20.7h-5.05ZM12 12Zm0 8.325 2.45-2.45h3.45V14.45L20.35 12 17.9 9.55V6.1h-3.45L12 3.65 9.55 6.1H6.125v3.45L3.675 12l2.45 2.45v3.425H9.55Zm0-2.45q2.475 0 4.175-1.712 1.7-1.713 1.7-4.188 0-2.45-1.7-4.15-1.7-1.7-4.175-1.7-.575 0-1.125.112-.55.113-1.075.338 1.5.8 2.4 2.262.9 1.463.9 3.163 0 1.7-.9 3.162-.9 1.463-2.4 2.263.525.225 1.075.337.55.113 1.125.113Z"/></svg>

<svg xmlns="http://www.w3.org/2000/svg" height="24" width="24"><path d="M12 24.275 8.325 20.7H3.3V15.675L-0.275 12L3.3 8.325V3.275H8.325L12 -0.3L15.675 3.275H20.725V8.325L24.3 12L20.725 15.675V20.7H15.675ZM12 12ZM12 20.325 14.45 17.875H17.9V14.45L20.35 12L17.9 9.55V6.1H14.45L12 3.65L9.55 6.1H6.125V9.55L3.675 12L6.125 14.45V17.875H9.55ZM12 17.875Q14.475 17.875 16.175 16.163Q17.875 14.45 17.875 11.975Q17.875 9.525 16.175 7.825Q14.475 6.125 12 6.125Q11.425 6.125 10.875 6.237Q10.325 6.35 9.8 6.575Q11.3 7.375 12.2 8.837Q13.1 10.3 13.1 12Q13.1 13.7 12.2 15.162Q11.3 16.625 9.8 17.425Q10.325 17.65 10.875 17.762Q11.425 17.875 12 17.875Z"/></svg>
